assets/images/chicons/flamingo.svg

<svg width="100" height="94" viewBox="0 0 100 94" fill="none" xmlns="http://www.w3.org/2000/svg">
<g filter="url(#filter0_d)">
<path d="M79.1787 71.9984L54.4444 30.7765L80.7246 43.5695L89.9999 77.6841L79.1787 71.9984Z" fill="#DD2E2E"/>
<path d="M36.6667 77.6842L40.1235 52.0316L55.6791 33.7083L57.4075 61.804L36.6667 77.6842Z" fill="#DD2E2E"/>
<path fill-rule="evenodd" clip-rule="evenodd" d="M19.8865 24.9792C12.1382 40.0973 12.6756 60.1534 12.472 74.7524L10 74.7155C10.2084 59.7739 9.74408 36.7507 17.7023 21.2229C21.6611 13.4987 26.5676 7.33685 32.3726 5.19763C35.3224 4.11055 38.1481 3.58424 42.5926 4.39097C47.037 5.1977 58.8889 13.1861 63.3333 26.3789L50 16.1178C45.9853 13.4554 43.831 11.3231 41.1111 10.2544C38.4184 9.19634 35.5997 9.28165 33.2021 10.1652C28.3122 11.9672 23.781 17.3804 19.8865 24.9792Z" fill="#DD2E2E"/>
<path fill-rule="evenodd" clip-rule="evenodd" d="M32.9499 30.7967C28.737 45.2303 27.7034 63.7029 27.5634 77.6842L24.8148 77.6623C24.9547 63.68 25.9827 42.4836 30.2898 27.7275C31.3693 24.0291 32.6665 20.6923 34.2328 17.9565C35.7917 15.2339 37.6705 13.0122 39.968 11.6624C42.3254 10.2775 44.9343 10.6459 48.027 10.6459C58.8888 10.6459 62.9505 27.7524 66.2962 30.7967L54.4444 27.7275C52.9629 20.5154 51.3036 17.051 47.6296 16.1178C45.3363 15.5354 42.5925 15.2475 41.1111 16.1178C39.3717 17.1397 38.1324 18.988 36.6809 21.5231C35.2369 24.0451 34.0005 27.1976 32.9499 30.7967Z" fill="#DD2E2E"/>
<path d="M51.4815 43.7267C54.9383 40.3097 54.9383 30.3233 53.786 24.9131C60.6996 30.4657 72.2222 29.5462 72.2222 29.5462C72.2222 29.5462 69.2593 35.1741 64.8148 46.9011C60.4939 41.7756 57.5309 41.164 51.4815 43.7267Z" fill="#DD2E2E"/>
</g>
<defs>
<filter id="filter0_d" x="0" y="0" width="100" height="93.6842" filterUnits="userSpaceOnUse" color-interpolation-filters="sRGB">
<feFlood flood-opacity="0" result="BackgroundImageFix"/>
<feColorMatrix in="SourceAlpha" type="matrix" values="0 0 0 0 0 0 0 0 0 0 0 0 0 0 0 0 0 0 127 0"/>
<feOffset dy="6"/>
<feGaussianBlur stdDeviation="5"/>
<feColorMatrix type="matrix" values="0 0 0 0 0 0 0 0 0 0 0 0 0 0 0 0 0 0 0.1 0"/>
<feBlend mode="normal" in2="BackgroundImageFix" result="effect1_dropShadow"/>
<feBlend mode="normal" in="SourceGraphic" in2="effect1_dropShadow" result="shape"/>
</filter>
</defs>
</svg>

<svg width="100" height="94" fill="none" xmlns="http://www.w3.org/2000/svg"><g filter="url(#filter0_d)" fill="#DD2E2E"><path d="M79.179 71.998L54.444 30.776l26.28 12.793L90 77.684l-10.821-5.686zM36.667 77.684l3.456-25.652L55.68 33.708l1.728 28.096-20.74 15.88z"/><path fill-rule="evenodd" clip-rule="evenodd" d="M19.887 24.98c-7.749 15.117-7.211 35.173-7.415 49.772L10 74.716c.208-14.942-.256-37.965 7.702-53.493 3.96-7.724 8.866-13.886 14.67-16.025 2.95-1.087 5.776-1.614 10.22-.807 4.445.807 16.297 8.795 20.741 21.988L50 16.118c-4.015-2.663-6.169-4.795-8.889-5.864a11.114 11.114 0 0 0-7.909-.089c-4.89 1.802-9.421 7.215-13.315 14.814z"/><path fill-rule="evenodd" clip-rule="evenodd" d="M32.95 30.797c-4.213 14.433-5.247 32.906-5.387 46.887l-2.748-.022c.14-13.982 1.168-35.178 5.475-49.935 1.08-3.698 2.377-7.035 3.943-9.77 1.559-2.723 3.438-4.945 5.735-6.295 2.357-1.385 4.966-1.016 8.059-1.016 10.862 0 14.923 17.106 18.27 20.15l-11.853-3.069c-1.481-7.212-3.14-10.676-6.814-11.61-2.294-.582-5.038-.87-6.519 0-1.74 1.023-2.979 2.871-4.43 5.406-1.444 2.522-2.68 5.675-3.731 9.274z"/><path d="M51.481 43.727c3.457-3.417 3.457-13.404 2.305-18.814 6.914 5.553 18.436 4.633 18.436 4.633s-2.963 5.628-7.407 17.355c-4.321-5.125-7.284-5.737-13.334-3.174z"/></g><defs><filter id="filter0_d" x="0" y="0" width="100" height="93.684" filterUnits="userSpaceOnUse" color-interpolation-filters="sRGB"><feFlood flood-opacity="0" result="BackgroundImageFix"/><feColorMatrix in="SourceAlpha" values="0 0 0 0 0 0 0 0 0 0 0 0 0 0 0 0 0 0 127 0"/><feOffset dy="6"/><feGaussianBlur stdDeviation="5"/><feColorMatrix values="0 0 0 0 0 0 0 0 0 0 0 0 0 0 0 0 0 0 0.1 0"/><feBlend in2="BackgroundImageFix" result="effect1_dropShadow"/><feBlend in="SourceGraphic" in2="effect1_dropShadow" result="shape"/></filter></defs></svg>
